X: 1
T:Opp lille Hans
C:anon.
O:Norway
R:Nursery song
Z:Transcribed by Frank Nordberg - http://www.musicaviva.com
M:3/4
L:1/8
K:C
"C"E2GGC2|"C"E2GGC2|"F"FAc2A2|"F/C"A4"C"G2|
"C"E2GGC2|"C"E2GGC2|"G7"DEF2B,2|"G7"D4"C"C2|]
